X:595
T:Christmas Eve
M:4/4
L:1/8
K:G
GE|D3 E G3 A|B2 dB ABGB|ABGE D3 E|GDBG ABGE|
D3 E G3 A|B2 dB ABGA|BA A2 GEBG|1 ABGF G2 GE :|2 ABGF G2 GA||
BA (3Bcd edeg|a2 ge g2 eg|a2 ge gage|dedB ABGA|
BA (3Bcd edeg|a2 ge g2 eg|a2 ge d2 BG|1 ABGF G2 GA :|2 ABGF G2 dc||
BG G2 DG (3Bcd|eg g2 bged|BG G2 EGBG|EAAE AEcA|
BG G2 DG (3Bcd|eg g2 egdg|bdaf gedB|1 ABGF G2 dc :|2 ABGF G2 GE ||
